icons/svelte/svelte-original.svg

<svg width="128" height="128" viewBox="0 0 128 128" fill="none" xmlns="http://www.w3.org/2000/svg">
<path d="M119.838 16.9355C105.553 -0.0756495 77.3357 -5.11753 56.9423 5.69543L21.113 24.6962C16.2659 27.2246 12.1065 30.567 8.90093 34.5098C5.69538 38.4525 3.51431 42.9086 2.49728 47.593C2.04296 49.7042 1.81256 51.8445 1.80873 53.9892C1.83134 59.8203 3.54943 65.5603 6.81632 70.719C3.75257 74.5912 1.6617 78.9389 0.669505 83.5008C-0.346201 88.28 -0.204998 93.1798 1.08484 97.9129C2.37467 102.646 4.78717 107.117 8.18089 111.065C22.465 128.076 50.7454 133.118 71.0762 122.305L106.868 103.304C111.712 100.772 115.866 97.4257 119.064 93.4788C122.261 89.532 124.431 85.0722 125.434 80.3861C125.894 78.2792 126.125 76.1419 126.122 74.0004C126.113 68.1808 124.417 62.4489 121.177 57.2914C124.239 53.4224 126.33 49.0783 127.324 44.52C127.768 42.4114 127.994 40.275 128 38.1343C128.002 30.5391 125.148 23.1338 119.838 16.9563V16.9355Z" fill="#FF3E00"/>
<path d="M53.4408 112.667C51.1019 113.17 48.6961 113.425 46.2803 113.427C41.685 113.428 37.158 112.502 33.0874 110.727C29.0168 108.953 25.524 106.384 22.9085 103.24C19.7142 99.5237 17.9982 95.0687 18.0014 90.5C18.0031 89.215 18.1371 87.9326 18.4019 86.6667C18.6146 85.7245 18.9032 84.7953 19.2657 83.8854L19.9417 82.1771L21.7694 83.3333C26.0123 85.9242 30.7532 87.8967 35.7899 89.1667L37.1169 89.5L36.9917 90.6042C36.9917 90.7917 36.9917 90.9896 36.9917 91.1771C36.9891 92.5585 37.5056 93.9061 38.4688 95.0313C39.2473 95.9893 40.295 96.7747 41.5211 97.3193C42.7471 97.8639 44.1144 98.1512 45.5041 98.1563C46.2308 98.1584 46.9547 98.0813 47.6573 97.9271C48.4368 97.7553 49.1799 97.4848 49.8605 97.125L85.6505 78.0313C86.7241 77.4655 87.6077 76.6823 88.2186 75.755C88.8294 74.8277 89.1475 73.7866 89.1431 72.7292C89.1329 71.3477 88.6032 70.0036 87.6284 68.8854C86.838 67.9394 85.7841 67.1667 84.5568 66.6334C83.3294 66.1001 81.9651 65.822 80.5805 65.8229C79.8539 65.8208 79.13 65.8978 78.4274 66.0521C77.6503 66.2203 76.9107 66.4911 76.2367 66.8542L62.5917 74.1042C60.3424 75.2901 57.8902 76.1857 55.3185 76.7604C52.9793 77.2622 50.5737 77.5177 48.158 77.5208C43.5644 77.5203 39.0393 76.5943 34.9693 74.8221C30.8993 73.0498 27.4054 70.4839 24.7863 67.3438C21.5957 63.6263 19.8801 59.1724 19.8791 54.6042C19.8809 53.3192 20.0149 52.0368 20.2797 50.7708C20.8917 47.9553 22.2004 45.2763 24.1226 42.9039C26.0449 40.5315 28.5388 38.5174 31.4461 36.9896L67.2735 18C69.5215 16.8095 71.9739 15.9104 74.5467 15.3333C76.8863 14.8344 79.292 14.5824 81.7072 14.5833C86.3122 14.5735 90.8513 15.4934 94.9351 17.2642C99.0189 19.0349 102.525 21.6037 105.154 24.75C108.325 28.4766 110.019 32.9339 109.999 37.5C109.997 38.7884 109.863 40.0743 109.598 41.3437C109.385 42.2859 109.097 43.2151 108.734 44.125L108.058 45.8333L106.231 44.7187C101.991 42.1238 97.2488 40.151 92.2101 38.8854L90.8831 38.5417L91.0083 37.4375C91.0083 37.25 91.0083 37.0521 91.0083 36.8646C91.0085 35.4802 90.4924 34.1299 89.5311 33C88.742 32.0554 87.6901 31.2836 86.4651 30.7504C85.2401 30.2171 83.8783 29.9382 82.4958 29.9375C81.7754 29.9507 81.06 30.0418 80.3677 30.2083C79.5855 30.3736 78.8412 30.6445 78.1645 31.0104L42.337 50C41.46 50.463 40.7079 51.0724 40.1283 51.7896C39.5487 52.5067 39.1542 53.3162 38.9696 54.1667C38.8812 54.5307 38.8268 54.8998 38.8068 55.2708C38.806 56.6488 39.3225 57.9926 40.284 59.1146C41.0724 60.0598 42.1241 60.8321 43.3493 61.3654C44.5745 61.8987 45.9366 62.1772 47.3193 62.1771C48.046 62.1792 48.7698 62.1022 49.4725 61.9479C50.2539 61.7808 50.9978 61.5099 51.6757 61.1458L65.3457 53.8542C67.5938 52.6663 70.0463 51.7706 72.6189 51.1979C74.9579 50.6955 77.3636 50.44 79.7794 50.4375C84.3749 50.4372 88.9022 51.3628 92.9743 53.1351C97.0465 54.9073 100.543 57.4736 103.164 60.6146C106.354 64.3321 108.07 68.786 108.071 73.3542C108.074 74.6536 107.936 75.9505 107.658 77.2292C107.049 80.0456 105.741 82.7256 103.819 85.0983C101.896 87.471 99.4007 89.4845 96.4913 91.0104L60.7264 110C58.4746 111.191 56.0179 112.091 53.4408 112.667V112.667Z" fill="white"/>
</svg>

<svg viewBox="0 0 128 128" fill="none" xmlns="http://www.w3.org/2000/svg"><path d="M119.838 16.936C105.553-.076 77.336-5.118 56.942 5.696l-35.829 19c-4.847 2.529-9.006 5.871-12.212 9.814-3.206 3.943-5.387 8.399-6.404 13.083a30.64 30.64 0 00-.688 6.396c.022 5.831 1.74 11.571 5.007 16.73-3.063 3.872-5.154 8.22-6.146 12.782a30.483 30.483 0 00.415 14.412c1.29 4.733 3.702 9.204 7.096 13.152 14.284 17.011 42.564 22.053 62.895 11.24l35.792-19.001c4.844-2.532 8.998-5.878 12.196-9.825 3.197-3.947 5.367-8.407 6.37-13.093.46-2.107.691-4.244.688-6.386-.009-5.82-1.705-11.551-4.945-16.709 3.062-3.869 5.153-8.213 6.147-12.771.444-2.109.67-4.245.676-6.386.002-7.595-2.852-15-8.162-21.178v-.02z" fill="#FF3E00"/><path d="M53.44 112.667a34.23 34.23 0 01-7.16.76c-4.595.001-9.122-.925-13.193-2.7-4.07-1.774-7.563-4.343-10.179-7.487-3.194-3.716-4.91-8.171-4.907-12.74a18.83 18.83 0 01.4-3.833 18.55 18.55 0 01.865-2.782l.676-1.708 1.827 1.156c4.243 2.591 8.984 4.564 14.02 5.834l1.328.333-.125 1.104v.573c-.003 1.381.514 2.73 1.477 3.854.778.958 1.826 1.744 3.052 2.288a9.936 9.936 0 003.983.837 9.923 9.923 0 002.153-.229 8.745 8.745 0 002.204-.802l35.79-19.094c1.073-.566 1.957-1.349 2.568-2.276.61-.927.928-1.968.924-3.026-.01-1.381-.54-2.725-1.515-3.844-.79-.946-1.844-1.718-3.071-2.252a9.997 9.997 0 00-3.977-.81 9.917 9.917 0 00-2.153.23 8.344 8.344 0 00-2.19.801l-13.645 7.25a29.314 29.314 0 01-7.273 2.656c-2.34.502-4.745.758-7.161.76-4.594 0-9.119-.926-13.189-2.698-4.07-1.772-7.564-4.338-10.183-7.478-3.19-3.718-4.906-8.172-4.907-12.74.002-1.285.136-2.567.4-3.833.613-2.816 1.921-5.495 3.844-7.867 1.922-2.373 4.416-4.387 7.323-5.914L67.274 18c2.248-1.19 4.7-2.09 7.273-2.667 2.34-.499 4.745-.75 7.16-.75 4.605-.01 9.144.91 13.228 2.681 4.084 1.77 7.59 4.34 10.219 7.486 3.171 3.727 4.865 8.184 4.845 12.75a18.939 18.939 0 01-.401 3.844 18.529 18.529 0 01-.864 2.781l-.676 1.708-1.827-1.114c-4.24-2.595-8.982-4.568-14.02-5.834l-1.328-.343.125-1.105v-.572c0-1.385-.516-2.735-1.477-3.865-.789-.945-1.84-1.716-3.066-2.25a9.992 9.992 0 00-3.97-.813 9.887 9.887 0 00-2.127.271 8.2 8.2 0 00-2.203.802L42.337 50a7.071 7.071 0 00-2.209 1.79 5.713 5.713 0 00-1.158 2.377 6.057 6.057 0 00-.163 1.104c-.001 1.378.515 2.722 1.477 3.844.788.945 1.84 1.717 3.065 2.25a9.98 9.98 0 003.97.812 9.918 9.918 0 002.153-.23 8.35 8.35 0 002.204-.801l13.67-7.292a29.125 29.125 0 017.273-2.656 34.305 34.305 0 017.16-.76c4.596 0 9.123.925 13.195 2.697 4.072 1.772 7.569 4.339 10.19 7.48 3.19 3.717 4.906 8.171 4.907 12.74.003 1.299-.135 2.596-.413 3.874-.609 2.817-1.917 5.497-3.839 7.87-1.923 2.372-4.418 4.385-7.328 5.911L60.726 110a29.233 29.233 0 01-7.285 2.667z" fill="#fff"/></svg>
